X: 2
T: Contentment Is Wealth
R: jig
M: 6/8
L: 1/8
K: Dmaj
G/A/|GFG Eed|BAB EAG|(4FGAF DdB|AFD Def|
gfe edB|BAB dcd|(4BcdB DFA|GEE E2:|
e/f/|gbe gbe|gfg bag|fdd add|fdf afd|
gfe edB|BAB dcd|(4BcdB DFA|GEE E2:|


Tune 1662	Setting 28835

